X: 38304
T: St. Patrick's An Dro
R: polka
M: 2/4
K: Bminor
|:B/c/d/c/ Bf|dB cf|e/f/e/d/ c>B|dB c2|
B/c/d/c/ Bf|dB cf|e/f/e/c/ d>c|dc B2:|
|:B/c/d/e/ ff|ea fd|B/c/d/f/ e>f|e/f/e/d/ c2|
B/c/d/e/ ff|ea fd|B/c/d/f/ e>c|dc B2:|

